X: 1354
T: Mendilimin Yeşili
C: Muzaffer Sarısözen
O: Turkey
F: http://compmusic.upf.edu/node/140
N: saba--turku--sofyan--mendilimin_yesili--
N: makam= saba
N: form= turku
N: usul= sofyan = 4/4
M: 4/4
L: 1/16
K: C _2/4B _3/4d  
Q: 1/4=78
%%MIDI tuningsystem comma53
z4 e2f2 g2fe fedc  | c2de dcdB c2BA A4  | 
w:   |   | 
effe eddc dc2B c2(3BAB  | A6AB cdBd c4  | 
w:   |   | 
z4 e2f2 g2fe fedc  | c2de dcdB c2BA A4  | 
w:   |   | 
effe eddc dc2B c2(3BAB  | A6AB cBAB A4  | 
w:   |   | 
A2AG A2B2 c4 d2cB  | c4 d2dc c2BA A4  | \
w:  Men di *  li min  ye şi  |  li  a man  *  a *  *  man    | 
A2AG A2B2 c4 d2cB  | 
w:  Ben  kay *  bet tim  e şi  | 
c4 z2cd c3/2B/AB c4  | z4 e2f2 g2fe fedc  | \
w:  mi   SAZ  |  Al  bu  men *  *  dil   | 
c2de dcdB c2BA A4  | 
w:  sen de  *  sen *  de  *  dur *  *  sun    | 
ef{g}fe eddc dc2B c2(3BAB  | A6AB cdBd c4  | 
w:  Sil  *  *  gö *  zü *  nün  *  ya *  *  şı  |  nı   SAZ  | 
z4 e2f2 g2fe fedc  | c2de dcdB c2BA A4  | 
w:  Al  bu  men *  *  dil   |  sen de  *  sen *  de  *  dur *  *  sun    | 
ef{g}fe eddc dc2B c2(3BAB  | A6AB cBAB A4  | 
w:  Sil  *  *  gö *  zü *  nün  *  ya *  *  şı  |  nı   SAZ  | 
z4 A2B2 cdcB c4  | c2de dcdB c2(3BAB A4  | \
w:  A man  dok *  *  *  tor   |  ca nım  *  ku *  zum  *  dok *  *  *  tor   | 
A3G A2B2 c4 d2cB  | 
w:  der *  di me  bir  ça  | 
c4 z2cd c3/2B/AB c4  | z4 e2f2 g2fe fedc  | \
w:  re   SAZ  |  Ça re siz  *  *  dert  | 
c2de dcdB c2BA A4  | 
w:  le re  *  *  *  *  *  düş *  *  tüm   | 
ef{g}fe eddc dc2B c2(3BAB  | A6AB cBAB A4  | 
w:  dok *  *  tor  *  ba *  na  *  bir  *  *  ça  |  re   SAZ  | 
z4 e2f2 g2fe fedc  | c2de dcdB c2BA A4  | 
w:  Ça re siz  *  *  dert  |  le re  *  *  *  *  *  düş *  *  tüm   | 
ef{g}fe eddc dc2B c2(3BAB  | A6AB cBAB A4  | 
w:  dok *  *  tor  *  ba *  na  *  bir  *  *  ça  |  re   SAZ  | 
z4 e2f2 g2fe fedc  | c2de dcdB c2BA A4  | 
w:   |   | 
effe eddc dc2B c2(3BAB  | A6AB cdBd c4  | 
w:   |   | 
z4 e2f2 g2fe fedc  | c2de dcdB c2BA A4  | 
w:   |   | 
effe eddc dc2B c2(3BAB  | A6AB cBAB A4  | 
w:   |   | 
A2AG A2B2 c4 d2cB  | c4 d2dc c2BA A4  | \
w:  Men di *  li min  ye şi  |  li  a man  *  a *  *  man    | 
A2AG A2B2 c4 d2cB  | 
w:  Ben  kay *  bet tim  e şi  | 
c4 z2cd c3/2B/AB c4  | z4 e2f2 g2fe fedc  | \
w:  mi   SAZ  |  Al  bu  men *  *  dil   | 
c2de dcdB c2BA A4  | 
w:  sen de  *  sen *  de  *  dur *  *  sun    | 
ef{g}fe eddc dc2B c2(3BAB  | A6AB cdBd c4  | 
w:  Sil  *  *  gö *  zü *  nün  *  ya *  *  şı  |  nı   SAZ  | 
z4 e2f2 g2fe fedc  | c2de dcdB c2BA A4  | 
w:  Al  bu  men *  *  dil   |  sen de  *  sen *  de  *  dur *  *  sun    | 
ef{g}fe eddc dc2B c2(3BAB  | A6AB cBAB A4  | 
w:  Sil  *  *  gö *  zü *  nün  *  ya *  *  şı  |  nı   SAZ  | 
z4 A2B2 cdcB c4  | c2de dcdB c2(3BAB A4  | \
w:  A man  dok *  *  *  tor   |  ca nım  *  ku *  zum  *  dok *  *  *  tor   | 
A3G A2B2 c4 d2cB  | 
w:  der *  di me  bir  ça  | 
c4 z2cd c3/2B/AB c4  | z4 e2f2 g2fe fedc  | \
w:  re   SAZ  |  Ça re siz  *  *  dert  | 
c2de dcdB c2BA A4  | 
w:  le re  *  *  *  *  *  düş *  *  tüm   | 
ef{g}fe eddc dc2B c2(3BAB  | A6AB cBAB A4  | 
w:  dok *  *  tor  *  ba *  na  *  bir  *  *  ça  |  re   SAZ  | 
z4 e2f2 g2fe fedc  | c2de dcdB c2BA A4  | 
w:  Ça re siz  *  *  dert  |  le re  *  *  *  *  *  düş *  *  tüm   | 
ef{g}fe eddc dc2B c2(3BAB  | A6AB cBAB A4  | 
w:  dok *  *  tor  *  ba *  na  *  bir  *  *  ça  |  re   SAZ  | 
|


